X:1
T:Tarry Wool
M:4/4
L:1/4
K:A
 E| A3/2 A/2 A3/2 A/2| G A B2| A3/2 A/2A/2-B/2 c|d/2-c/2B/2-A/2 E2|\
F/2-E/2A/2-F/2 E E| D3/2 E/2 C3/2 E/2| E3/2 E/2 E d| c B A||
